ti99/_inc/system.svg

<svg xmlns="http://www.w3.org/2000/svg"><g fill="#fff"><path d="m.229 3.27h85.744v25.608h-29.268v75.226h-28.581v-75.226h-28.124z"/><path d="m93.975 3.27h28.124v101.063h-28.581z"/><path d="m130.787 40.311h25.38v19.892h-25.38z"/><path d="m162.659 82.068 29.638-3.486c.78 3.873 2.097 6.608 3.952 8.203 1.853 1.595 4.122 2.392 6.805 2.392 4.781 0 8.513-2.256 11.196-6.768 1.951-3.326 3.415-10.367 4.391-21.122-3.562 3.418-7.221 5.925-10.977 7.52-3.757 1.595-8.099 2.392-13.025 2.392-9.612 0-17.722-3.189-24.333-9.57-6.611-6.379-9.915-14.446-9.915-24.199 0-6.653 1.683-12.715 5.05-18.183 3.365-5.469 8-9.605 13.903-12.407 5.902-2.803 13.319-4.204 22.247-4.204 10.732 0 19.343 1.72 25.832 5.161 6.487 3.441 11.672 8.909 15.551 16.405 3.878 7.497 5.817 17.397 5.817 29.702 0 18.092-4.074 31.343-12.221 39.75-8.148 8.408-19.442 12.612-33.882 12.612-8.538 0-15.27-.923-20.197-2.768-4.928-1.845-9.026-4.546-12.294-8.1-3.269-3.555-5.781-7.998-7.538-13.33zm54.884-44.706c0-5.423-1.463-9.673-4.39-12.749s-6.489-4.614-10.684-4.614c-3.952 0-7.233 1.39-9.843 4.17s-3.914 6.95-3.914 12.509c0 5.605 1.353 9.89 4.061 12.852 2.707 2.962 6.086 4.443 10.136 4.443 4.195 0 7.683-1.436 10.465-4.307 2.779-2.87 4.169-6.972 4.169-12.304z"/><path d="m255.128 82.068 29.637-3.486c.78 3.873 2.098 6.608 3.952 8.203 1.853 1.595 4.123 2.392 6.806 2.392 4.78 0 8.513-2.256 11.196-6.768 1.951-3.326 3.415-10.367 4.391-21.122-3.562 3.418-7.221 5.925-10.976 7.52-3.758 1.595-8.1 2.392-13.027 2.392-9.611 0-17.722-3.189-24.332-9.57-6.611-6.379-9.915-14.446-9.915-24.199 0-6.653 1.683-12.715 5.049-18.183 3.366-5.469 8-9.605 13.904-12.407 5.902-2.803 13.318-4.204 22.246-4.204 10.732 0 19.344 1.72 25.832 5.161s11.672 8.909 15.551 16.405c3.878 7.497 5.818 17.397 5.818 29.702 0 18.092-4.074 31.343-12.221 39.75-8.148 8.408-19.442 12.612-33.882 12.612-8.538 0-15.27-.923-20.197-2.768-4.928-1.845-9.027-4.546-12.294-8.1-3.269-3.555-5.782-7.998-7.538-13.33zm54.884-44.706c0-5.423-1.463-9.673-4.39-12.749s-6.489-4.614-10.684-4.614c-3.951 0-7.233 1.39-9.843 4.17s-3.915 6.95-3.915 12.509c0 5.605 1.354 9.89 4.062 12.852 2.707 2.962 6.085 4.443 10.135 4.443 4.195 0 7.683-1.436 10.465-4.307 2.78-2.87 4.17-6.972 4.17-12.304z"/><path d="m377.958 3.041h13.987l-45.73 104.035h-12.386z"/><path d="m429.009 108.781v-18.73h-54.298v-27.646l56.202-62.405h30.934v61.591h13.466v28.46h-13.466v18.73zm6.861-25.589-.002 18.729h19.12v-18.729l13.464-.001v-14.741h-13.464l-.001-61.59h-21.021l-52.396 58.178v18.154m54.3-14.742h-39.879l39.879-43.834m-24.364 36.975h17.503v-19.241z"/><path d="m557.716 108.782-5.367-16.544h-32.63l-5.229 16.544h-41.437l43.081-107.074h40.794l43.072 107.074zm-.382-23.403 5.368 16.542h27.144l-37.553-93.352h-31.524l-37.562 93.352h26.258l5.229-16.542h40.148v3.43l-3.262 1.058 3.262-1.058v-3.43zm-4.632-14.809h-33.018l16.421-50.492m-6.977 43.632h14.101l-7.088-21.56z"/><path d="m60.82 151.71 7.053.706c-.77 3.746-2.743 6.678-5.917 8.797-3.175 2.119-7.074 3.177-11.697 3.177-5.791 0-10.447-1.458-13.967-4.375s-5.281-7.098-5.281-12.542c0-3.521.758-6.602 2.272-9.242 1.515-2.64 3.819-4.621 6.915-5.941 3.094-1.321 6.461-1.981 10.101-1.981 4.596 0 8.355.895 11.278 2.687 2.922 1.791 4.795 4.334 5.619 7.63l-6.974.828c-.665-2.189-1.84-3.837-3.527-4.943-1.687-1.105-3.725-1.657-6.117-1.657-3.614 0-6.549.997-8.807 2.993s-3.387 5.153-3.387 9.472c0 4.381 1.089 7.564 3.268 9.549 2.177 1.986 5.021 2.978 8.527 2.978 2.816 0 5.167-.665 7.054-1.995 1.886-1.33 3.082-3.377 3.587-6.141z"/><path d="m71.34 147.35c0-6.038 2.178-10.51 6.535-13.417 3.64-2.415 8.077-3.623 13.311-3.623 5.818 0 10.573 1.469 14.266 4.405 3.692 2.938 5.539 6.996 5.539 12.175 0 4.196-.816 7.497-2.45 9.901-1.634 2.406-4.012 4.273-7.134 5.604-3.122 1.33-6.529 1.995-10.221 1.995-5.925 0-10.714-1.462-14.366-4.39-3.654-2.927-5.48-7.143-5.48-12.65zm7.372 0c0 4.176 1.182 7.303 3.547 9.38 2.364 2.078 5.34 3.117 8.926 3.117 3.56 0 6.522-1.045 8.887-3.132 2.364-2.088 3.547-5.271 3.547-9.549 0-4.032-1.19-7.087-3.567-9.165-2.378-2.077-5.334-3.116-8.867-3.116-3.586 0-6.562 1.033-8.926 3.101-2.365 2.068-3.547 5.189-3.547 9.364z"/><path d="m119.4 163.654v-32.607h6.416v4.575c1.327-1.597 3.094-2.881 5.3-3.853 2.204-.972 4.715-1.459 7.532-1.459 3.134 0 5.704.502 7.711 1.504 2.005 1.004 3.42 2.405 4.244 4.207 3.347-3.807 7.704-5.711 13.07-5.711 4.198 0 7.425.895 9.684 2.687 2.257 1.791 3.387 4.549 3.387 8.274v22.383h-7.133v-20.541c0-2.21-.233-3.802-.697-4.774-.466-.973-1.309-1.755-2.531-2.349-1.222-.593-2.657-.89-4.303-.89-2.977 0-5.447.763-7.412 2.287-1.966 1.525-2.949 3.966-2.949 7.323v18.944h-7.173v-21.185c0-2.456-.585-4.299-1.753-5.527-1.17-1.228-3.083-1.842-5.739-1.842-2.019 0-3.886.409-5.599 1.228-1.714.819-2.956 2.016-3.726 3.592-.771 1.576-1.157 3.849-1.157 6.816v16.918z"/><path d="m187.385 176.151v-45.104h6.535v4.237c1.54-1.658 3.281-2.902 5.221-3.731 1.938-.829 4.289-1.243 7.052-1.243 3.613 0 6.802.717 9.565 2.149 2.762 1.433 4.848 3.454 6.256 6.064s2.112 5.471 2.112 8.582c0 3.336-.777 6.34-2.331 9.011s-3.812 4.718-6.774 6.14c-2.963 1.423-6.077 2.134-9.345 2.134-2.391 0-4.537-.389-6.436-1.166-1.9-.778-3.461-1.76-4.683-2.948v15.874h-7.172zm6.495-28.616c0 4.196 1.102 7.297 3.308 9.303 2.204 2.006 4.875 3.009 8.01 3.009 3.188 0 5.917-1.039 8.189-3.117 2.271-2.076 3.407-5.295 3.407-9.655 0-4.156-1.11-7.267-3.327-9.335-2.219-2.067-4.869-3.101-7.951-3.101-3.055 0-5.758 1.101-8.109 3.301s-3.527 5.399-3.527 9.595z"/><path d="m260.51 163.654v-4.79c-3.294 3.685-7.771 5.527-13.429 5.527-2.498 0-4.829-.369-6.994-1.105-2.166-.737-3.773-1.663-4.822-2.778-1.05-1.116-1.787-2.483-2.212-4.1-.293-1.084-.438-2.803-.438-5.158v-20.202h7.173v18.083c0 2.887.146 4.832.438 5.834.452 1.454 1.409 2.595 2.87 3.423 1.461.829 3.267 1.244 5.419 1.244s4.171-.424 6.057-1.274c1.887-.85 3.221-2.006 4.005-3.47.784-1.463 1.176-3.587 1.176-6.371v-17.47h7.173v32.607z"/><path d="m293.825 158.711 1.036 4.882c-2.019.327-3.825.492-5.419.492-2.604 0-4.623-.319-6.057-.953-1.435-.634-2.445-1.468-3.029-2.502-.584-1.033-.877-3.209-.877-6.524v-18.76h-5.26v-4.298h5.26v-8.076l7.133-3.316v11.392h7.213v4.298h-7.213v19.067c0 1.576.126 2.589.379 3.04.252.45.663.808 1.235 1.074.571.266 1.388.4 2.45.4.798-.001 1.847-.072 3.149-.216z"/><path d="m329.809 153.153 7.414.706c-1.17 3.337-3.335 5.926-6.497 7.769-3.162 1.842-7.199 2.762-12.114 2.762-6.19 0-11.098-1.468-14.724-4.405-3.627-2.937-5.44-7.057-5.44-12.358 0-5.486 1.833-9.744 5.5-12.773 3.665-3.028 8.421-4.544 14.266-4.544 5.659 0 10.281 1.484 13.868 4.452s5.38 7.143 5.38 12.527c0 .327-.014.819-.041 1.474h-31.561c.266 3.582 1.581 6.324 3.945 8.228s5.313 2.856 8.847 2.856c2.631 0 4.875-.532 6.734-1.597 1.859-1.064 3.334-2.763 4.423-5.097zm-23.551-8.935h23.631c-.319-2.742-1.222-4.799-2.71-6.171-2.285-2.129-5.246-3.193-8.886-3.193-3.295 0-6.064.849-8.309 2.548-2.245 1.7-3.487 3.972-3.726 6.816z"/><path d="m346.149 163.654v-32.607h6.455v4.943c1.647-2.313 3.169-3.839 4.563-4.575 1.394-.737 2.929-1.105 4.603-1.105 2.416 0 4.874.594 7.372 1.781l-2.471 5.127c-1.753-.798-3.507-1.197-5.26-1.197-1.568 0-2.976.363-4.224 1.089-1.249.728-2.139 1.735-2.67 3.025-.797 1.965-1.196 4.114-1.196 6.448v17.071z"/></g></svg>

<?xml version="1.0" encoding="utf-8"?>
<svg version="1.1" xmlns="http://www.w3.org/2000/svg">
  <polygon points="0.229 3.27 85.973 3.27 85.973 28.878 56.705 28.878 56.705 104.104 28.124 104.104 28.124 28.878 0 28.878" style="fill: rgb(255, 255, 255);"/>
  <polygon points="93.975 3.27 122.099 3.27 122.099 104.333 93.518 104.333" style="fill: rgb(255, 255, 255);"/>
  <rect x="130.787" y="40.311" width="25.38" height="19.892" style="fill: rgb(255, 255, 255);"/>
  <path d="M 162.659 82.068 L 192.297 78.582 C 193.077 82.455 194.394 85.19 196.249 86.785 C 198.102 88.38 200.371 89.177 203.054 89.177 C 207.835 89.177 211.567 86.921 214.25 82.409 C 216.201 79.083 217.665 72.042 218.641 61.287 C 215.079 64.705 211.42 67.212 207.664 68.807 C 203.907 70.402 199.565 71.199 194.639 71.199 C 185.027 71.199 176.917 68.01 170.306 61.629 C 163.695 55.25 160.391 47.183 160.391 37.43 C 160.391 30.777 162.074 24.715 165.441 19.247 C 168.806 13.778 173.441 9.642 179.344 6.84 C 185.246 4.037 192.663 2.636 201.591 2.636 C 212.323 2.636 220.934 4.356 227.423 7.797 C 233.91 11.238 239.095 16.706 242.974 24.202 C 246.852 31.699 248.791 41.599 248.791 53.904 C 248.791 71.996 244.717 85.247 236.57 93.654 C 228.422 102.062 217.128 106.266 202.688 106.266 C 194.15 106.266 187.418 105.343 182.491 103.498 C 177.563 101.653 173.465 98.952 170.197 95.398 C 166.928 91.843 164.416 87.4 162.659 82.068 Z M 217.543 37.362 C 217.543 31.939 216.08 27.689 213.153 24.613 C 210.226 21.537 206.664 19.999 202.469 19.999 C 198.517 19.999 195.236 21.389 192.626 24.169 C 190.016 26.949 188.712 31.119 188.712 36.678 C 188.712 42.283 190.065 46.568 192.773 49.53 C 195.48 52.492 198.859 53.973 202.909 53.973 C 207.104 53.973 210.592 52.537 213.374 49.666 C 216.153 46.796 217.543 42.694 217.543 37.362 Z" style="fill: rgb(255, 255, 255);"/>
  <path d="M 255.128 82.068 L 284.765 78.582 C 285.545 82.455 286.863 85.19 288.717 86.785 C 290.57 88.38 292.84 89.177 295.523 89.177 C 300.303 89.177 304.036 86.921 306.719 82.409 C 308.67 79.083 310.134 72.042 311.11 61.287 C 307.548 64.705 303.889 67.212 300.134 68.807 C 296.376 70.402 292.034 71.199 287.107 71.199 C 277.496 71.199 269.385 68.01 262.775 61.629 C 256.164 55.25 252.86 47.183 252.86 37.43 C 252.86 30.777 254.543 24.715 257.909 19.247 C 261.275 13.778 265.909 9.642 271.813 6.84 C 277.715 4.037 285.131 2.636 294.059 2.636 C 304.791 2.636 313.403 4.356 319.891 7.797 C 326.379 11.238 331.563 16.706 335.442 24.202 C 339.32 31.699 341.26 41.599 341.26 53.904 C 341.26 71.996 337.186 85.247 329.039 93.654 C 320.891 102.062 309.597 106.266 295.157 106.266 C 286.619 106.266 279.887 105.343 274.96 103.498 C 270.032 101.653 265.933 98.952 262.666 95.398 C 259.397 91.843 256.884 87.4 255.128 82.068 Z M 310.012 37.362 C 310.012 31.939 308.549 27.689 305.622 24.613 C 302.695 21.537 299.133 19.999 294.938 19.999 C 290.987 19.999 287.705 21.389 285.095 24.169 C 282.485 26.949 281.18 31.119 281.18 36.678 C 281.18 42.283 282.534 46.568 285.242 49.53 C 287.949 52.492 291.327 53.973 295.377 53.973 C 299.572 53.973 303.06 52.537 305.842 49.666 C 308.622 46.796 310.012 42.694 310.012 37.362 Z" style="fill: rgb(255, 255, 255);"/>
  <polygon points="377.958 3.041 391.945 3.041 346.215 107.076 333.829 107.076" style="fill: rgb(255, 255, 255);"/>
  <path d="M 429.009 108.781 L 429.009 90.051 L 374.711 90.051 L 374.711 62.405 L 430.913 0 L 461.847 0 L 461.847 61.591 L 475.313 61.591 L 475.313 90.051 L 461.847 90.051 L 461.847 108.781 L 429.009 108.781 L 429.009 108.781 Z M 435.87 83.192 L 435.87 83.192 L 435.868 101.921 L 454.988 101.921 L 454.988 83.192 L 468.452 83.191 L 468.452 68.45 L 454.988 68.45 L 454.987 6.86 L 433.966 6.86 L 381.57 65.038 L 381.57 83.192 M 435.87 68.45 L 395.991 68.45 L 395.991 68.45 L 435.87 24.616 M 411.506 61.591 L 429.009 61.591 L 429.009 42.35 L 411.506 61.591 L 411.506 61.591 Z" style="fill: rgb(255, 255, 255);"/>
  <path d="M 557.716 108.782 L 552.349 92.238 L 519.719 92.238 L 514.49 108.782 L 473.053 108.782 L 516.134 1.708 L 556.928 1.708 L 600 108.782 L 557.716 108.782 L 557.716 108.782 Z M 557.334 85.379 L 562.702 101.921 L 589.846 101.921 L 552.293 8.569 L 520.769 8.569 L 483.207 101.921 L 509.465 101.921 L 514.694 85.379 L 554.842 85.379 L 554.842 88.809 L 551.58 89.867 L 554.842 88.809 L 554.842 85.379 L 557.334 85.379 L 557.334 85.379 Z M 552.702 70.57 L 519.684 70.57 L 519.684 70.57 L 536.105 20.078 M 529.128 63.71 L 543.229 63.71 L 536.141 42.15 L 529.128 63.71 L 529.128 63.71 Z" style="fill: rgb(255, 255, 255);"/>
  <path d="M 60.82 151.71 L 67.873 152.416 C 67.103 156.162 65.13 159.094 61.956 161.213 C 58.781 163.332 54.882 164.39 50.259 164.39 C 44.468 164.39 39.812 162.932 36.292 160.015 C 32.772 157.098 31.011 152.917 31.011 147.473 C 31.011 143.952 31.769 140.871 33.283 138.231 C 34.798 135.591 37.102 133.61 40.198 132.29 C 43.292 130.969 46.659 130.309 50.299 130.309 C 54.895 130.309 58.654 131.204 61.577 132.996 C 64.499 134.787 66.372 137.33 67.196 140.626 L 60.222 141.454 C 59.557 139.265 58.382 137.617 56.695 136.511 C 55.008 135.406 52.97 134.854 50.578 134.854 C 46.964 134.854 44.029 135.851 41.771 137.847 C 39.513 139.843 38.384 143 38.384 147.319 C 38.384 151.7 39.473 154.883 41.652 156.868 C 43.829 158.854 46.673 159.846 50.179 159.846 C 52.995 159.846 55.346 159.181 57.233 157.851 C 59.119 156.521 60.315 154.474 60.82 151.71 Z" style="fill: rgb(255, 255, 255);"/>
  <path d="M 71.34 147.35 C 71.34 141.312 73.518 136.84 77.875 133.933 C 81.515 131.518 85.952 130.31 91.186 130.31 C 97.004 130.31 101.759 131.779 105.452 134.715 C 109.144 137.653 110.991 141.711 110.991 146.89 C 110.991 151.086 110.175 154.387 108.541 156.791 C 106.907 159.197 104.529 161.064 101.407 162.395 C 98.285 163.725 94.878 164.39 91.186 164.39 C 85.261 164.39 80.472 162.928 76.82 160 C 73.166 157.073 71.34 152.857 71.34 147.35 Z M 78.712 147.35 C 78.712 151.526 79.894 154.653 82.259 156.73 C 84.623 158.808 87.599 159.847 91.185 159.847 C 94.745 159.847 97.707 158.802 100.072 156.715 C 102.436 154.627 103.619 151.444 103.619 147.166 C 103.619 143.134 102.429 140.079 100.052 138.001 C 97.674 135.924 94.718 134.885 91.185 134.885 C 87.599 134.885 84.623 135.918 82.259 137.986 C 79.894 140.054 78.712 143.175 78.712 147.35 Z" style="fill: rgb(255, 255, 255);"/>
  <path d="M 119.4 163.654 L 119.4 131.047 L 125.816 131.047 L 125.816 135.622 C 127.143 134.025 128.91 132.741 131.116 131.769 C 133.32 130.797 135.831 130.31 138.648 130.31 C 141.782 130.31 144.352 130.812 146.359 131.814 C 148.364 132.818 149.779 134.219 150.603 136.021 C 153.95 132.214 158.307 130.31 163.673 130.31 C 167.871 130.31 171.098 131.205 173.357 132.997 C 175.614 134.788 176.744 137.546 176.744 141.271 L 176.744 163.654 L 169.611 163.654 L 169.611 143.113 C 169.611 140.903 169.378 139.311 168.914 138.339 C 168.448 137.366 167.605 136.584 166.383 135.99 C 165.161 135.397 163.726 135.1 162.08 135.1 C 159.103 135.1 156.633 135.863 154.668 137.387 C 152.702 138.912 151.719 141.353 151.719 144.71 L 151.719 163.654 L 144.546 163.654 L 144.546 142.469 C 144.546 140.013 143.961 138.17 142.793 136.942 C 141.623 135.714 139.71 135.1 137.054 135.1 C 135.035 135.1 133.168 135.509 131.455 136.328 C 129.741 137.147 128.499 138.344 127.729 139.92 C 126.958 141.496 126.572 143.769 126.572 146.736 L 126.572 163.654 L 119.4 163.654 Z" style="fill: rgb(255, 255, 255);"/>
  <path d="M 187.385 176.151 L 187.385 131.047 L 193.92 131.047 L 193.92 135.284 C 195.46 133.626 197.201 132.382 199.141 131.553 C 201.079 130.724 203.43 130.31 206.193 130.31 C 209.806 130.31 212.995 131.027 215.758 132.459 C 218.52 133.892 220.606 135.913 222.014 138.523 C 223.422 141.133 224.126 143.994 224.126 147.105 C 224.126 150.441 223.349 153.445 221.795 156.116 C 220.241 158.787 217.983 160.834 215.021 162.256 C 212.058 163.679 208.944 164.39 205.676 164.39 C 203.285 164.39 201.139 164.001 199.24 163.224 C 197.34 162.446 195.779 161.464 194.557 160.276 L 194.557 176.15 L 187.385 176.15 Z M 193.88 147.535 C 193.88 151.731 194.982 154.832 197.188 156.838 C 199.392 158.844 202.063 159.847 205.198 159.847 C 208.386 159.847 211.115 158.808 213.387 156.73 C 215.658 154.654 216.794 151.435 216.794 147.075 C 216.794 142.919 215.684 139.808 213.467 137.74 C 211.248 135.673 208.598 134.639 205.516 134.639 C 202.461 134.639 199.758 135.74 197.407 137.94 C 195.056 140.14 193.88 143.339 193.88 147.535 Z" style="fill: rgb(255, 255, 255);"/>
  <path d="M 260.51 163.654 L 260.51 158.864 C 257.216 162.549 252.739 164.391 247.081 164.391 C 244.583 164.391 242.252 164.022 240.087 163.286 C 237.921 162.549 236.314 161.623 235.265 160.508 C 234.215 159.392 233.478 158.025 233.053 156.408 C 232.76 155.324 232.615 153.605 232.615 151.25 L 232.615 131.048 L 239.788 131.048 L 239.788 149.131 C 239.788 152.018 239.934 153.963 240.226 154.965 C 240.678 156.419 241.635 157.56 243.096 158.388 C 244.557 159.217 246.363 159.632 248.515 159.632 C 250.667 159.632 252.686 159.208 254.572 158.358 C 256.459 157.508 257.793 156.352 258.577 154.888 C 259.361 153.425 259.753 151.301 259.753 148.517 L 259.753 131.047 L 266.926 131.047 L 266.926 163.654 L 260.51 163.654 Z" style="fill: rgb(255, 255, 255);"/>
  <path d="M 293.825 158.711 L 294.861 163.593 C 292.842 163.92 291.036 164.085 289.442 164.085 C 286.838 164.085 284.819 163.766 283.385 163.132 C 281.95 162.498 280.94 161.664 280.356 160.63 C 279.772 159.597 279.479 157.421 279.479 154.106 L 279.479 135.346 L 274.219 135.346 L 274.219 131.048 L 279.479 131.048 L 279.479 122.972 L 286.612 119.656 L 286.612 131.048 L 293.825 131.048 L 293.825 135.346 L 286.612 135.346 L 286.612 154.413 C 286.612 155.989 286.738 157.002 286.991 157.453 C 287.243 157.903 287.654 158.261 288.226 158.527 C 288.797 158.793 289.614 158.927 290.676 158.927 C 291.474 158.926 292.523 158.855 293.825 158.711 Z" style="fill: rgb(255, 255, 255);"/>
  <path d="M 329.809 153.153 L 337.223 153.859 C 336.053 157.196 333.888 159.785 330.726 161.628 C 327.564 163.47 323.527 164.39 318.612 164.39 C 312.422 164.39 307.514 162.922 303.888 159.985 C 300.261 157.048 298.448 152.928 298.448 147.627 C 298.448 142.141 300.281 137.883 303.948 134.854 C 307.613 131.826 312.369 130.31 318.214 130.31 C 323.873 130.31 328.495 131.794 332.082 134.762 C 335.669 137.73 337.462 141.905 337.462 147.289 C 337.462 147.616 337.448 148.108 337.421 148.763 L 305.86 148.763 C 306.126 152.345 307.441 155.087 309.805 156.991 C 312.169 158.895 315.118 159.847 318.652 159.847 C 321.283 159.847 323.527 159.315 325.386 158.25 C 327.245 157.186 328.72 155.487 329.809 153.153 Z M 306.258 144.218 L 329.889 144.218 C 329.57 141.476 328.667 139.419 327.179 138.047 C 324.894 135.918 321.933 134.854 318.293 134.854 C 314.998 134.854 312.229 135.703 309.984 137.402 C 307.739 139.102 306.497 141.374 306.258 144.218 Z" style="fill: rgb(255, 255, 255);"/>
  <path d="M 346.149 163.654 L 346.149 131.047 L 352.604 131.047 L 352.604 135.99 C 354.251 133.677 355.773 132.151 357.167 131.415 C 358.561 130.678 360.096 130.31 361.77 130.31 C 364.186 130.31 366.644 130.904 369.142 132.091 L 366.671 137.218 C 364.918 136.42 363.164 136.021 361.411 136.021 C 359.843 136.021 358.435 136.384 357.187 137.11 C 355.938 137.838 355.048 138.845 354.517 140.135 C 353.72 142.1 353.321 144.249 353.321 146.583 L 353.321 163.654 L 346.149 163.654 Z" style="fill: rgb(255, 255, 255);"/>
</svg>
